X: 2922
T: Barrack Street
R: reel
M: 4/4
K: Gmajor
|:GA|BE~E2 G2 AD|~D2 AD ~D2Ac|BE ~E2 GFGA|(3.B.c.d ef gefd|
BE~E2 G2AD|~D2 AD ~D2Ac|BE ~E2 GFGA|(3.B.c.d ef e2:|
|:ef|gebe gebe|faad faaf|gebe gebe|fedf ~e3 f|
(3.g.f.e be gebe|faad faaf|~g3 e ~f3 d|(3.e.f.g fd e2:|

